X: 1
T: The Weaver and His Wife
N: Nottingham Music Database
C: Andrew Rankine
M: 6/8
K: A
E \
| "A"E2E EAB | c3 A3 | c3 A2c | edc "Bm"B3 | "E7"E2E EBc | d3 B3 | E2e dcB |1 "A"c3- c2 :|2 "A"A3 -A2 ||
|: "(E)"G/F/ \
| "A"EAc e3 | EAe c3 | EAc edc | "Bm"d3 -d2B/c/ | "E7"ded BdB | G3 F3 | E2e dcB |1 "A"c3 -c2 ||2 "A"A3 -A2 :|

%%sep 1 1 500

